X:1
T:Title
%%score { ( 1 3 ) | ( 2 4 ) }
L:1/8
M:6/4
K:F
V:1 treble nm="Grand Piano"
V:3 treble 
V:2 bass 
V:4 bass 
V:1
 z6 z4 A2 | c4 [DFB]2 [CFA]4 [CEG]2 | [A,DF]2 [CEG]2 [CFA]2 [CEG]4 [CFc]2 | %3
 [DFB]4 [DGB]2 [DFA]4 [CFA]2 | D2- [A,DF]2 [CEG]2 [A,CF]4 [CFA]2 | %5
 [=B,DG]4 [G,CG]2 [CA]2 [D=B]2 [Ec]2 | c2 d2 =B2 [Ec]4 [EG]2 | A4 G2 A2 =B2 c2 | %8
 c2 d2 =B2 [Ec]4 [Fc]2 | [Fd]4 [Fc]2 [Fd]4 [CFc]2 | [Fd]2 [Ec]2 [B,DB]2 [DFA]4 [CFc]2 | %11
 [Fd]4 [Fc]2 [Fd]4 [CFc]2 | d2 .c3 E A4 c2 | z6 .B6 | [CEG]6- [CEG]4 [CFc]2 | %15
 [DFB]4 [CFA]2 [CEG]2 [A,DF]2 [CEG]2 |[M:5/4] [A,CF]2- [A,CF]2- [A,CF]6 |] %17
V:2
 z6 z4 [F,CF]2 | [F,A,F]4 B,,2 F,4 C,2 | D,2 C,2 F,2 C,4 A,2 | B,4 G,2 D,4 A,,2 | %4
 B,,2 D,2 C,2 F,4 F,2 | z6 .F,6 | [F,A,F]4 [G,D]2 [C,G,]4 [C,C]2 | %7
 [F,CF]4 [E,C]2 F2- [D,DF]2 [A,CE]2 | [A,F]2- [D,A,F]2 [G,D]2 [C,G,]4 [F,A,]2 | %9
 [B,,B,]4 [F,A,]2 [B,,B,]4 A,,2 | [B,,B,]2 [C,G,]2 G,2 D,4 A,,2 | [B,,B,]4 [F,A,]2 [B,,B,]4 A,,2 | %12
 [B,,B,]2 [F,A,]2[K:treble] .[G,B,D]2 [F,CF]4 [A,CF]2 | [B,D]4 [A,C]2[K:bass] .[G,B,D]4 F,2 | %14
 C,6- C,4 A,,2 | B,,4 F,2 C,2 D,2 C,2 |[M:5/4] F,2- F,2- F,6 |] %17
V:3
 x12 | x12 | x12 | x12 | .[B,G]6 z6 | x12 | x12 | x12 | x12 | x12 | x12 | x12 | F4 B2 z6 | %13
 F4 F2 z2 E2 [CFA]2 | x12 | x12 |[M:5/4] x10 |] %17
V:4
 x12 | x12 | x12 | x12 | x12 | G,4 E,2 z2 D,2 [C,G,]2 | x12 | z6 .[F,C]6 | .F,6 z6 | x12 | x12 | %11
 x12 | x4[K:treble] x8 | x6[K:bass] x6 | x12 | x12 |[M:5/4] x10 |] %17

